X:906
T:Pilib An Cheoil
S:Marc Duff
Z:Nigel Gatherer
M:9/8
L:1/8
K:Gmaj
G2A B2G c2A | d2B cAG F3 | G2A B2G c2A | d2B cAF G3 :|
A2B A2G F2D | A2B A2G F3 | A2B A2G F2D | d2B cAF G3 :|
